svg/icon/usd.svg

<svg xmlns="http://www.w3.org/2000/svg" xmlns:xlink="http://www.w3.org/1999/xlink" width="32" height="32" viewBox="0 0 32 32"><defs><linearGradient id="usd-c" x1="50%" x2="50%" y1="0%" y2="100%"><stop offset="0%" stop-color="#FFF" stop-opacity=".5"/><stop offset="100%" stop-opacity=".5"/></linearGradient><circle id="usd-b" cx="16" cy="15" r="15"/><filter id="usd-a" width="111.7%" height="111.7%" x="-5.8%" y="-4.2%" filterUnits="objectBoundingBox"><feOffset dy=".5" in="SourceAlpha" result="shadowOffsetOuter1"/><feGaussianBlur in="shadowOffsetOuter1" result="shadowBlurOuter1" stdDeviation=".5"/><feComposite in="shadowBlurOuter1" in2="SourceAlpha" operator="out" result="shadowBlurOuter1"/><feColorMatrix in="shadowBlurOuter1" values="0 0 0 0 0 0 0 0 0 0 0 0 0 0 0 0 0 0 0.199473505 0"/></filter><path id="usd-e" d="M22.5,18.1542056 C22.5,20.7242991 20.4141791,22.4299065 17.3339552,22.6869159 L17.3339552,25 L15.2238806,25 L15.2238806,22.6635514 C13.113806,22.4299065 11.1492537,21.6121495 9.5,20.3504673 L11.0522388,18.2242991 C12.4347015,19.2990654 13.744403,20 15.3208955,20.2336449 L15.3208955,15.6542056 C11.7798507,14.7663551 10.130597,13.4813084 10.130597,10.8411215 C10.130597,8.31775701 12.1921642,6.58878505 15.2238806,6.35514019 L15.2238806,5 L17.3339552,5 L17.3339552,6.40186916 C19.1044776,6.61214953 20.5597015,7.21962617 21.8936567,8.17757009 L20.5354478,10.3738318 C19.4682836,9.60280374 18.3768657,9.11214953 17.2369403,8.87850467 L17.2369403,13.317757 C20.9235075,14.2056075 22.5,15.6308411 22.5,18.1542056 Z M15.3208955,12.8271028 L15.3208955,8.71495327 C13.7929104,8.8317757 12.9925373,9.64953271 12.9925373,10.6775701 C12.9925373,11.6588785 13.4533582,12.2897196 15.3208955,12.8271028 Z M19.6380597,18.317757 C19.6380597,17.2663551 19.1287313,16.635514 17.2369403,16.0981308 L17.2369403,20.3271028 C18.7649254,20.2102804 19.6380597,19.4392523 19.6380597,18.317757 Z"/><filter id="usd-d" width="126.9%" height="117.5%" x="-13.5%" y="-6.2%" filterUnits="objectBoundingBox"><feOffset dy=".5" in="SourceAlpha" result="shadowOffsetOuter1"/><feGaussianBlur in="shadowOffsetOuter1" result="shadowBlurOuter1" stdDeviation=".5"/><feColorMatrix in="shadowBlurOuter1" values="0 0 0 0 0 0 0 0 0 0 0 0 0 0 0 0 0 0 0.204257246 0"/></filter></defs><g fill="none" fill-rule="evenodd"><use fill="#000" filter="url(#usd-a)" xlink:href="#usd-b"/><use fill="#6CDE07" xlink:href="#usd-b"/><use fill="url(#usd-c)" style="mix-blend-mode:soft-light" xlink:href="#usd-b"/><circle cx="16" cy="15" r="14.5" stroke="#000" stroke-opacity=".097"/><g><use fill="#000" filter="url(#usd-d)" xlink:href="#usd-e"/><use fill="#FFF" xlink:href="#usd-e"/></g></g></svg>

<svg xmlns="http://www.w3.org/2000/svg" xmlns:xlink="http://www.w3.org/1999/xlink" width="32" height="32" viewBox="0 0 32 32"><defs><linearGradient id="c" x1="50%" x2="50%" y1="0%" y2="100%"><stop offset="0%" stop-color="#FFF" stop-opacity=".5"/><stop offset="100%" stop-opacity=".5"/></linearGradient><circle id="b" cx="16" cy="15" r="15"/><filter id="a" width="111.7%" height="111.7%" x="-5.8%" y="-4.2%" filterUnits="objectBoundingBox"><feOffset dy=".5" in="SourceAlpha" result="shadowOffsetOuter1"/><feGaussianBlur in="shadowOffsetOuter1" result="shadowBlurOuter1" stdDeviation=".5"/><feComposite in="shadowBlurOuter1" in2="SourceAlpha" operator="out" result="shadowBlurOuter1"/><feColorMatrix in="shadowBlurOuter1" values="0 0 0 0 0 0 0 0 0 0 0 0 0 0 0 0 0 0 0.199473505 0"/></filter><path id="e" d="M22.5 18.154c0 2.57-2.086 4.276-5.166 4.533V25h-2.11v-2.336A11.495 11.495 0 0 1 9.5 20.35l1.552-2.126c1.383 1.075 2.692 1.776 4.269 2.01v-4.58c-3.541-.888-5.19-2.173-5.19-4.813 0-2.523 2.061-4.252 5.093-4.486V5h2.11v1.402a9.49 9.49 0 0 1 4.56 1.776l-1.359 2.196c-1.067-.771-2.158-1.262-3.298-1.495v4.439c3.687.888 5.263 2.313 5.263 4.836zm-7.18-5.327V8.715c-1.527.117-2.327.935-2.327 1.963 0 .98.46 1.612 2.328 2.15zm4.318 5.49c0-1.05-.51-1.681-2.401-2.219v4.23c1.528-.118 2.401-.889 2.401-2.01z"/><filter id="d" width="126.9%" height="117.5%" x="-13.5%" y="-6.2%" filterUnits="objectBoundingBox"><feOffset dy=".5" in="SourceAlpha" result="shadowOffsetOuter1"/><feGaussianBlur in="shadowOffsetOuter1" result="shadowBlurOuter1" stdDeviation=".5"/><feColorMatrix in="shadowBlurOuter1" values="0 0 0 0 0 0 0 0 0 0 0 0 0 0 0 0 0 0 0.204257246 0"/></filter></defs><g fill="none" fill-rule="evenodd"><use fill="#000" filter="url(#a)" xlink:href="#b"/><use fill="#6CDE07" xlink:href="#b"/><use fill="url(#c)" style="mix-blend-mode:soft-light" xlink:href="#b"/><circle cx="16" cy="15" r="14.5" stroke="#000" stroke-opacity=".097"/><use fill="#000" filter="url(#d)" xlink:href="#e"/><use fill="#FFF" xlink:href="#e"/></g></svg>
